!!!ONB: MCCC : IJB0066_01 : Extracted Monophonic Melody
!!!COM: Bach, Johann Sebastian
!!!OPR: Cello Suite No.4
!!!OMV: 1
!!!SCT: BWV 1010
!!!ODT: 1717///
**kern
*Icello
*clefF4
*k[b-e-a-]
*E-:
*M2/2
*MM100
=1-
8EE-
8e-
8B-
8G
8B-
8E-
8G
8BB-
=2
8EE-
8e-
8B-
8G
8B-
8E-
8G
8BB-
=3
8EE-
8d-
8B-
8G
8B-
8E-
8G
8BB-
=4
8EE-
8d-
8B-
8G
8B-
8E-
8G
8BB-
=5
8EE-
8c
8A-
8E-
8A-
8C
8E-
8AA-
=6
8EE-
8c
8A-
8E-
8A-
8C
8E-
8AA-
=7
8EE-
8A-
8F
8D
8F
8BB-
8D
8AA-
=8
8EE-
8A-
8F
8D
8F
8BB-
8D
8AA-
=9
8EE-
8F
8E-
8BB-
8E-
8GG
8BB-
8EE-
=10
8DD
8G
8E-
8BB-
8E-
8GG
8BB-
8DD
=11
8CC
8e-
8c
8G
8c
8E-
8G
8C
=12
8BB-
8e-
8c
8G
8c
8E-
8G
8BB-
=13
8AA
8e-
8c
8F
8A
8C
8E-
8AA
=14
8FF
8e-
8c
8A
8c
8F
8A
8E-
=15
8BB-
8d
8B-
8F
8B-
8D
8F
8BB-
=16
8AA-
8d-
8B-
8F
8B-
8D-
8F
8AA-
=17
8GG
8d-
8B-
8E-
8G
8BB-
8E-
8GG
=18
8EE-
8d-
8B-
8G
8B-
8E-
8G
8D-
=19
8AA-
8c
8A-
8E-
8A-
8C
8E-
8AA-
=20
8GG
8c
8A-
8E-
8A-
8C
8E-
8GG
=21
8FF
8A-
8D
8BB
8D
8AA-
8BB
8FF
=22
8EE-
8A-
8F
8C
8F
8AA-
8C
8EE-
=23
8DD
8A-
8F
8BB
8F
8GG
8AA-
8DD
=24
8CC
8A-
8F
8C
8F
8AA-
8C
8FF
=25
8BB
8d
8A-
8F
8A-
8D
8F
8BB
=26
8GG
8d
8B
8F
8A-
8D
8F
8BB
=27
8CC
8e-
8c
8G
8c
8E-
8G
8C
=28
8CC
8e
8c
8G
8c
8E
8G
8C
=29
8BB-
8e
8c
8G
8c
8E
8G
8C
=30
8AA-
8f
8c
8A-
8c
8F
8A-
8E
=31
8F
8c
8A-
8E
8F
8C
8F
8AA-
=32
8EE
8d-
8B-
8G
8B-
8E
8G
8C
=33
8D-
8B-
8A-
8E
8F
8AA-
8C
8EE
=34
8FF
8B-
8A-
8E
8F
8AA-
8C
8FF
=35
8EE-
8A-
8F
8C
8F
8AA-
8C
8EE-
=36
8DD
8A-
8F
8D
8F
8BB-
8D
8F
=37
8A-
8DD
8FF
8BB-
8D
8BB-
8A-
8F
=38
8EE-
8G
8E-
8BB-
8E-
8GG
8BB-
8EE-
=39
8GG
8BB-
8E-
8BB-
8G
8E-
8B-
8G
=40
8c
8AA
8C
8F#
8A
8F#
8c
8A
=41
8e-
8GG
8C
8E-
8G
8E-
8c
8G
=42
8e-
8FF#
8AA
8C
8E-
8C
8F#
8C
=43
8A
8D
8F#
8A
8c
8A
8d
8A
=44
8GG
8B-
8G
8D
8G
8BB-
8D
8GG
=45
8FF
8B-
8G
8D
8G
8BB-
8D
8GG
=46
8EE-
8B-
8G
8D
8G
8BB-
8D
8GG
=47
8DD
8B-
8G
8D
8G
8BB-
8D
8GG
=48
4.CC#
8r
8r
16C#
16D
16E
16F#
16G
16A
=49
16B-
16A
16G
16F#
16G
16E
16C#
16D
16E
16F#
16G
16A
16B-
16A
16G
16A
=50
16B-
16c
16d
16c
16e-
16d
16c
16B-
16A
16B-
16c
16B-
16A
16G
16F#
16G
=51
8DD
8c
8A
8F#
8A
8D
8F#
8AA
=52
8DD
8c
8A
8F#
8A
8D
8F#
8AA
=53
8DD
8B-
8G
8D
8G
8BB-
8D
8GG
=54
8DD
8B-
8G
8D
8G
8BB-
8D
8GG
=55
16DD
16c#
16B-
16A
16B-
16c#
16B-
16A
16B-
16c#
16B-
16A
16B-
16c#
16B-
16A
=56
16G
16B-
16G
16F#
16G
16B-
16G
16F#
16G
16B-
16G
16F#
16G
16B-
16G
16F#
=57
16E
16G
16E
16D
16C#
16E
16C#
16BB
16AA
16C#
16AA
16GG
16FF#
16AA
16FF#
16EE
=58
4e-[
16e-]
16d
16c
16B-
16A
16G
16F#
16E
16D
16C
16BB-
16AA
=59
8.d
16e-
16B-
16A
16B-
16G
8.B-
16A
16G
16F#
16G
16C#
=60
8.A
16A
16G
16F#
16G
16E
4.F#
8G
=61
8GG
8B-
8G
8D
8G
8BB-
8D
8FF#
=62
8GG
8BB-
8D
8G
8B-
8G
8d
8F
=63
8GG
8d-
8B-
8G
8B-
8E
8G
8BB-
=64
8D-
8GG
8BB-
8E
8G
8E
8d-
8E
=65
8AA-
8c
8A-
8F
8A-
8C
8F
8AA-
=66
8C
8F
8A-
8F
8c
8F
8d
8A-
=67
8AA
8e-
8c
8A
8c
8E-
8G-
8C
=68
8E-
8AA
8C
8E-
8G-
8A
8c
8e-
=69
8BB-
8d
16c-
16B-
8A
8B-
8d
16c-
16B-
8A
=70
8B-
8c-
16B-
16A-
8G
8A-
8c-
16B-
16A-
8G
=71
8A-
8B-
16A-
16G-
8F
8G-
8B-
16A-
16G-
8F
=72
8G-
8G-
16F-
16E-
8D
8E-
8G-
16F-
16E-
8D
=73
8E-
8C-
8E-
8A-
8c-
8A-
8e-
8c-
=74
8A-
8c-
8A-
8E-
8C-
8AA-
8F
8AA-
=75
8CC
8AA
8G-
8D
16E-
16G-
16E-
16D
16E-
16G-
16E-
16D
=76
16E-
16A
16G-
16F
16G-
16A
16G-
16F
16G-
16c
16G-
16F
16G-
16e-
16G-
16F
=77
8G-
8BB-
8E-
8G-
8B-
8G-
8e-
8B-
=78
8G-
8E-
8B-
8G-
8E-
8BB-
8G-
8E-
=79
4c-
16F--
16G-
16F--
16G-
16A-
16B--
16A-
16B--
16c-
16B--
16c-
16B--
=80
16A-
16G-
16A-
16G-
16F-
16E-
16D
16E-
4.D
8E-
=81
8EE-
8e-
8B-
8G
8B-
8E-
8G
8BB-
=82
8EE-
8e-
8B-
8G
8B-
8E-
8G
8BB-
=83
8EE-
8d-
8B-
8G
8B-
8E-
8G
8BB-
=84
8EE-
8d-
8B-
8G
8B-
8E-
8G
8BB-
=85
8EE-
8c
8A-
8E-
8A-
8C
8E-
8AA-
=86
8EE-
8c
8A-
8E-
8A-
8C
8E-
8AA-
=87
[4D
16D]
16C
16BB-
16C
16D
16E-
16F
16G
16A-
16F
16G
16A-
=88
16D
16E-
16F
16BB-
16C
16D
16E-
16F
16G
16A-
16B-
16c
16d
16c
16e-
16d
=89
[4d
16d]
16B-
16A-
16G
16F
16E-
16D
16C
16BB-
16AA-
16GG
16FF
=90
4e-
2r
==
*-
